X:21071
T: The Braes of Breadalbane
R: Strathspey
B: RSCDS 21-7(I)
Z: John Chambers
M: C
L: 1/8
K: Am
|: E |\
"Am" E<A AB     c>B Ac |       e2 cA        e2 cA  |\
"Am" E<A AB "F" c>B Ac | "E7" c>A B>^G "Am" A3    :|
G |\
"C"  c<c cc "G" d<d dd |  "C"  e>f ge  "G"  d>B AG |
"C"  c<c cc "G" d<d dd |1 "Am" e>d c>d "E7" e2z   :|2 "E7" edcB "Am" A2 z |]
